!!!!SEGMENT: pl-sa--251-a-vii-11--003_golabek-jakub--parthia-in-c-allegro-molto.krn
!!!cenid: 17xx:1763
!!!COM: Gołąbek, Jakub
!!!COM-rismid: pe30008748
!!!CDT: 1739-1789/03/30
!!!CNT: Polish
!!!OPR: Parthia in C
!!!OTL: Allegro molto
!!!OMV: 003
!!!PDT:
!!!AGN:
!!!SMS-siglum: PL-SA
!!!SMS-shelfmark: 251/A VII 11
!!!SMS-shelfwork: 001-003 M
!!!SMS-variant:
!!!SMS-altvar:
!!!NIFC-rismid: 1001077273
!!!URL-scan: http://bc.bdsandomierz.pl/dlibra/publication/1776/edition/1744/content
!!!ONB-nifc: UWAGA: części Parthii: 1. Adagio, 2. Andante moderato, 3. Allegro molto
!!!key:
**kern	**dynam	**kern	**dynam	**kern	**dynam	**kern	**kern
*part4	*part4	*part3	*part3	*part5	*part5	*part2	*part1
*group2	*group2	*group2	*group2	*group1	*group1	*group1	*group1
*staff4	*	*staff3	*	*staff5	*	*staff2	*staff1
*Iempty	*	*Iempty	*	*Ifagot	*	*Iclars	*Iclars
*I"Cornu Secundo in C	*	*I"Cornu Primo in C	*	*I"Fagotto	*	*I"Clarinetto Secundo	*I"Clarinetto Primo
*I'cor 2	*	*I'cor 1	*	*I'fag	*	*I'[cl 2]	*I'cl 1
*clefG2	*	*clefG2	*	*clefF4	*	*clefG2	*clefG2
*Trd0c0	*	*Trd0c0	*	*	*	*	*
*k[]	*	*k[]	*	*k[]	*	*k[]	*k[]
*C:	*	*C:	*	*C:	*	*C:	*C:
*M2/4	*	*M2/4	*	*M2/4	*	*M2/4	*M2/4
*>[A,B,B,C,C,D]	*	*>[A,B,B,C,C,D]	*	*>[A,B,B,C,C,D]	*	*>[A,B,B,C,C,D]	*>[A,B,B,C,C,D]
*>A	*	*>A	*	*>A	*	*>A	*>A
!	!	!LO:TX:a:t=P:problem:w źródle ta adnotacja zapisana przed pierwszym taktem, na pięciolinii	!	!LO:TX:a:t=P:problem:w źródle ta adnotacja zapisana przed pierwszym taktem, na pięciolinii	!	!	!LO:TX:a:t=P:problem:w źródle ta adnotacja zapisana przed pierwszym taktem, na pięciolinii
!LO:TX:a:i:t=Allegro molto	!	!LO:TX:a:i:t=Allegro \nmolto	!	!LO:TX:a:t=Allegro \nmolto	!	!LO:TX:t=P:problem:w źródle brak zachowanej partii cl 2; informacja o obecności tej partii w tym utworze widnieje na karcie tytułowej	!LO:TX:a:i:t=Allegro \nmolto
8G/	.	8g/	.	8GG/	.	8ryy	8g/
=1	=1	=1	=1	=1	=1	=1	=1
8c/L	.	8cc\L	.	8C\L	.	2ryy	8cc\L
8e/	.	8ee\	.	8E\	.	.	8ee\
8g/	.	8gg\	.	8G\	.	.	8gg\
8e/J	.	8ee\J	.	8E\J	.	.	8ee\J
=2	=2	=2	=2	=2	=2	=2	=2
8c/L	.	8cc\L	.	8C\L	.	2ryy	8cc\L
8e/J	.	8ee\J	.	8E\J	.	.	8ee\J
4G/	.	4g/	.	4GG/	.	.	4g/
=3	=3	=3	=3	=3	=3	=3	=3
4r	.	4r	.	4FF/	.	2ryy	8a/L
.	.	.	.	.	.	.	8cc/J
4g/	.	4dd\	.	4GG/	.	.	8b/L
.	.	.	.	.	.	.	8dd/J
=4	=4	=4	=4	=4	=4	=4	=4
8e/L	.	8cc\L	.	8C/L	.	2ryy	16cc\LL
.	.	.	.	.	.	.	16dd\
8e/J	.	8cc\J	.	8GG/J	.	.	16ee\
.	.	.	.	.	.	.	16ff\JJ
4e/	.	4cc\	.	8C/	.	.	8gg\
.	.	.	.	8r	.	.	16r
.	.	.	.	.	.	.	16g/
=5	=5	=5	=5	=5	=5	=5	=5
8c/L	.	8cc\L	.	8C\L	.	2ryy	8cc\L
8e/	.	8ee\	.	8E\J	.	.	8ee\
8g/	.	8gg\	.	8G\L	.	.	8gg\
8e/J	.	8ee\J	.	8E\J	.	.	8ee\J
=6	=6	=6	=6	=6	=6	=6	=6
8c/L	.	8cc\L	.	8C\L	.	2ryy	8cc\L
8e/J	.	8ee\J	.	8E\J	.	.	8ee\J
4G/	.	4g/	.	4GG/	.	.	8.g/L
.	.	.	.	.	.	.	16g/Jk
=7	=7	=7	=7	=7	=7	=7	=7
4r	.	4r	.	8F\L	.	2ryy	16a/LL
.	.	.	.	.	.	.	16g/
.	.	.	.	8D\J	.	.	16a/
.	.	.	.	.	.	.	16cc/JJ
!	!	!	!	!LO:TX:t=P:problem:mixed beam	!	!	!
4g/	.	4dd\	.	8G\L	.	.	16b/LL
.	.	.	.	.	.	.	16a/
.	.	.	.	8GG/J	.	.	16b/
.	.	.	.	.	.	.	16dd/JJ
=8	=8	=8	=8	=8	=8	=8	=8
!	!	!	!	!LO:TX:t=P:problem:mixed beam	!	!	!
4e/	.	4cc\	.	8C/L	.	2ryy	4cc\
.	.	.	.	8c\J	.	.	.
4r	.	4r	.	8C/	.	.	8r
.	.	.	.	8r	.	.	8ee\
!	!	!	!	!	!	!	!LO:LB:g=original
=9	=9	=9	=9	=9	=9	=9	=9
!	!	!	!	!LO:TX:t=P:problem:mixed beam	!	!	!
4G/	.	4g/	.	16GG/LL	.	2ryy	8dd\L
.	.	.	.	16G\	.	.	.
.	.	.	.	16G\	.	.	8dd\J
.	.	.	.	16G\JJ	.	.	.
!	!	!	!	!LO:TX:t=P:problem:mixed beam	!	!	!
4r	.	4r	.	16GG/LL	.	.	8dd\L
.	.	.	.	16G\	.	.	.
.	.	.	.	16G\	.	.	8cc\J
.	.	.	.	16G\JJ	.	.	.
=10	=10	=10	=10	=10	=10	=10	=10
!	!	!	!	!LO:TX:t=P:problem:mixed beam	!	!	!
4G/	.	4g/	.	16GG/LL	.	2ryy	8b\L
.	.	.	.	16G\	.	.	.
.	.	.	.	16G\	.	.	8cc\J
.	.	.	.	16G\JJ	.	.	.
!	!	!	!	!LO:TX:t=P:problem:mixed beam	!	!	!
4r	.	4r	.	16GG/LL	.	.	8dd\L
.	.	.	.	16G\	.	.	.
.	.	.	.	16G\	.	.	8gg\J
.	.	.	.	16G\JJ	.	.	.
=11	=11	=11	=11	=11	=11	=11	=11
!	!	!	!	!LO:TX:t=P:problem:mixed beam	!	!	!
4G/	.	4g/	.	16GG/LL	.	2ryy	8dd\L
.	.	.	.	16G\	.	.	.
.	.	.	.	16G\	.	.	8dd\J
.	.	.	.	16G\JJ	.	.	.
!	!	!	!	!LO:TX:t=P:problem:mixed beam	!	!	!
4r	.	4r	.	16GG/LL	.	.	8dd\L
.	.	.	.	16G\	.	.	.
.	.	.	.	16G\	.	.	8cc\J
.	.	.	.	16G\JJ	.	.	.
!	!	!	!	!LO:LB:g=original	!	!	!
=12	=12	=12	=12	=12	=12	=12	=12
4G/	.	4g/	.	4GG/	.	2ryy	4b\
4r	.	4r	.	4r	.	.	8r
.	.	.	.	.	.	.	16g/LL
.	.	.	.	.	.	.	16b/JJ
=13	=13	=13	=13	=13	=13	=13	=13
!	!	!	!	!LO:TX:t=P:problem:mixed beam	!	!	!
4G/	.	4g/	.	8GG/L	.	2ryy	8dd\L
.	.	.	.	8G\J	.	.	8dd\J
!	!	!	!	!LO:TX:t=P:problem:mixed beam	!	!	!
4r	.	4r	.	8GG/L	.	.	16dd\LL
.	.	.	.	.	.	.	16ee\
.	.	.	.	8G\J	.	.	16dd\
.	.	.	.	.	.	.	16cc\JJ
=14	=14	=14	=14	=14	=14	=14	=14
!	!	!	!	!LO:TX:t=P:problem:mixed beam	!	!	!
4G/	.	4g/	.	8GG/L	.	2ryy	16b\LL
.	.	.	.	.	.	.	16cc\
.	.	.	.	8G\J	.	.	16b\
.	.	.	.	.	.	.	16cc\JJ
!	!	!	!	!LO:TX:t=P:problem:mixed beam	!	!	!
4r	.	4r	.	8GG/L	.	.	16dd\LL
.	.	.	.	.	.	.	16ee\
.	.	.	.	8G\J	.	.	16ff#X\
.	.	.	.	.	.	.	16gg\JJ
=15	=15	=15	=15	=15	=15	=15	=15
!	!	!	!	!LO:TX:t=P:problem:mixed beam	!	!	!
2G/	.	2g/	.	8GG/L	.	2ryy	16dd\LL
.	.	.	.	.	.	.	16cc\
.	.	.	.	8G\J	.	.	16dd\
.	.	.	.	.	.	.	16ee\JJ
!	!	!	!	!LO:TX:t=P:problem:mixed beam	!	!	!
.	.	.	.	8GG/L	.	.	16dd\LL
.	.	.	.	.	.	.	16ee\
.	.	.	.	8G\J	.	.	16dd\
.	.	.	.	.	.	.	16cc\JJ
=16	=16	=16	=16	=16	=16	=16	=16
4G;>/	.	4g;>/	.	4GG/	.	2ryy	4b;>\
8r	.	8r	.	4r	.	.	8r
8G/	.	8g/	.	.	.	.	8g/
!LO:LB:g=original	!	!	!	!	!	!	!LO:LB:g=original
=17	=17	=17	=17	=17	=17	=17	=17
8c/L	.	8cc\L	.	8C\L	.	2ryy	8cc\L
8e/	.	8ee\	.	8E\	.	.	8ee\
8g/	.	8gg\	.	8G\	.	.	8gg\
8e/J	.	8ee\J	.	8E\J	.	.	8ee\J
=18	=18	=18	=18	=18	=18	=18	=18
8c/L	.	8cc\L	.	8C\L	.	2ryy	8cc\L
8e/J	.	8ee\J	.	8E\J	.	.	16dd\L
.	.	.	.	.	.	.	16ee\JJ
4G/	.	4g/	.	4GG/	.	.	4g/
!	!	!LO:LB:g=original	!	!	!	!	!
=19	=19	=19	=19	=19	=19	=19	=19
4r	.	4r	.	4FF/	.	2ryy	8a/L
.	.	.	.	.	.	.	8cc/J
4g/	.	4dd\	.	4GG/	.	.	8b\L
.	.	.	.	.	.	.	8dd\J
=20	=20	=20	=20	=20	=20	=20	=20
4e/	.	4cc\	.	8C/L	.	2ryy	16cc\LL
.	.	.	.	.	.	.	16dd\
.	.	.	.	8GG/J	.	.	16ee\
.	.	.	.	.	.	.	16ff\JJ
4r	.	4r	.	8C/	.	.	16gg\LL
.	.	.	.	.	.	.	16aa\
.	.	.	.	8r	.	.	16bb\
.	.	.	.	.	.	.	16ccc\JJ
=21	=21	=21	=21	=21	=21	=21	=21
8c/L	.	8cc\L	.	8C\L	.	2ryy	8cc\L
8e/	.	8ee\	.	8E\J	.	.	8ee\J
8g/	.	8gg\	.	8G\L	.	.	8gg\L
8e/J	.	8ee\J	.	8E\J	.	.	8ee\J
=22	=22	=22	=22	=22	=22	=22	=22
8c/L	.	8cc\L	.	8C\L	.	2ryy	8cc\L
8e/J	.	8ee\J	.	8E\J	.	.	8ee\J
4G/	.	4g/	.	4GG/	.	.	4g/
=23	=23	=23	=23	=23	=23	=23	=23
4r	.	4r	.	8F\L	.	2ryy	16a/LL
.	.	.	.	.	.	.	16g/
.	.	.	.	8D\J	.	.	16a/
.	.	.	.	.	.	.	16cc/JJ
!	!	!	!	!LO:TX:t=P:problem:mixed beam	!	!	!
4g/	.	4dd\	.	8G\L	.	.	16b\LL
.	.	.	.	.	.	.	16a\
.	.	.	.	8GG/J	.	.	16b\
.	.	.	.	.	.	.	16dd\JJ
=	=	=	=	=	=	=	=
4e/	.	4cc\	.	4C/	.	4.ryy	4cc\
8r	.	8r	.	8r	.	.	8r
!	!	!	!	!	!	!	!LO:LB:g=original
=24!|:	=24!|:	=24!|:	=24!|:	=24!|:	=24!|:	=24!|:	=24!|:
*	*	*	*	*k[b-e-a-]	*	*	*k[]
*	*	*	*	*E-:	*	*	*
*>B	*	*>B	*	*>B	*	*>B	*>B
!	!	!	!	!LO:TX:t=P:problem:w źródle zmiana znaków przykluczowych na A- E- BB- (w takiej kolejności i na takich wysokościach)	!	!	!
8r	.	8r	.	8r	.	8ryy	16cc\LL
.	.	.	.	.	.	.	16ee-X\JJ
=25	=25	=25	=25	=25	=25	=25	=25
!	!LO:DY:rj	!	!LO:DY:rj	!	!LO:DY:rj	!	!
!	!LO:DY:a	!	!LO:DY:a	!	!LO:DY:a	!	!
2c/	p	2c/	p	8C/L	p	2ryy	4.gg\
.	.	.	.	8C/	.	.	.
.	.	.	.	8C/	.	.	.
.	.	.	.	8C/J	.	.	8aa-X\
!	!	!	!	!LO:LB:g=original	!	!	!
=26	=26	=26	=26	=26	=26	=26	=26
2c/	.	2c/	.	8C/L	.	2ryy	8gg\L
!	!	!	!	!	!	!	!LO:SIC:v:s=8aa-
.	.	.	.	8C/	.	.	8aa\
.	.	.	.	8C/	.	.	8gg\
.	.	.	.	8C/J	.	.	8ff#X\J
=27	=27	=27	=27	=27	=27	=27	=27
2c/	.	2c/	.	8C/L	.	2ryy	16gg\LL
.	.	.	.	.	.	.	16ff\
.	.	.	.	8C/	.	.	16ee-X\
.	.	.	.	.	.	.	16dd\JJ
.	.	.	.	8C/	.	.	16cc\LL
.	.	.	.	.	.	.	16dd\
.	.	.	.	8AA-/J	.	.	16ee-\
.	.	.	.	.	.	.	16ff\JJ
=28	=28	=28	=28	=28	=28	=28	=28
!	!	!	!	!LO:TX:t=P:problem:mixed beam	!	!	!
4G/	.	4g/	.	8GG/L	.	2ryy	4gg\
.	.	.	.	8G\	.	.	.
4r	.	4r	.	8GG/J	.	.	8r
.	.	.	.	8r	.	.	16cc\LL
.	.	.	.	.	.	.	16ee-X\JJ
=29	=29	=29	=29	=29	=29	=29	=29
2c/	.	2c/	.	8C/L	.	2ryy	4.gg\
.	.	.	.	8C/	.	.	.
.	.	.	.	8C/	.	.	.
.	.	.	.	8C/J	.	.	8aa-X\
=30	=30	=30	=30	=30	=30	=30	=30
2c/	.	2c/	.	8C/L	.	2ryy	16gg\LL
.	.	.	.	.	.	.	16gg\
!	!	!	!	!	!	!	!LO:SIC:v:s=16aa-
.	.	.	.	8C/	.	.	16aa\
!	!	!	!	!	!	!	!LO:SIC:v:s=16aa-
.	.	.	.	.	.	.	16aa\JJ
.	.	.	.	8C/	.	.	16gg\LL
.	.	.	.	.	.	.	16gg\
.	.	.	.	8C/J	.	.	16ff\
.	.	.	.	.	.	.	16ff\JJ
=31	=31	=31	=31	=31	=31	=31	=31
4c/	.	4c/	.	8C\L	.	2ryy	16gg\LL
.	.	.	.	.	.	.	16ff\
.	.	.	.	8E-\J	.	.	16ee-X\
.	.	.	.	.	.	.	16ff\JJ
!	!	!	!	!LO:TX:t=P:problem:mixed beam	!	!	!
4G/	.	4g/	.	8G\L	.	.	16ee-\LL
.	.	.	.	.	.	.	16dd\
.	.	.	.	8GG/J	.	.	16cc\
.	.	.	.	.	.	.	16dd\JJ
=	=	=	=	=	=	=	=
4c/	.	4c/	.	4C/	.	4.ryy	4cc\
8r	.	8r	.	8r	.	.	8r
!	!	!	!	!	!	!	!LO:LB:g=original
=32:|!|:	=32:|!|:	=32:|!|:	=32:|!|:	=32:|!|:	=32:|!|:	=32:|!|:	=32:|!|:
*>C	*	*>C	*	*>C	*	*>C	*>C
*	*	*	*	*	*	*	*k[b-e-a-]
8r	.	8r	.	8r	.	8ryy	16ee-\LL
.	.	.	.	.	.	.	16gg\JJ
=33	=33	=33	=33	=33	=33	=33	=33
!LO:N:vis=00	!	!LO:N:vis=00	!	!	!	!	!
0r	.	0r	.	8E-X\L	.	2ryy	8bb-X\L
.	.	.	.	8E-\	.	.	8bb-\J
.	.	.	.	8E-\	.	.	8bb-\L
.	.	.	.	8E-\J	.	.	16gg\L
.	.	.	.	.	.	.	16ee-\JJ
=34	=34	=34	=34	=34	=34	=34	=34
!	!	!	!	!LO:TX:t=P:problem:mixed beam	!	!	!
.	.	.	.	8BB-/L	.	2ryy	16ee-\LL
.	.	.	.	.	.	.	16dd\
.	.	.	.	8B-\J	.	.	16ff\
.	.	.	.	.	.	.	16dd\JJ
!	!	!	!	!LO:TX:t=P:problem:mixed beam	!	!	!
.	.	.	.	8BB-/L	.	.	8b-\L
.	.	.	.	8B-\J	.	.	16dd\L
.	.	.	.	.	.	.	16ff\JJ
=35	=35	=35	=35	=35	=35	=35	=35
!	!	!	!	!LO:TX:t=P:problem:mixed beam	!	!	!
.	.	.	.	8BB-/L	.	2ryy	8aa-\L
.	.	.	.	8B-\J	.	.	8aa-\J
!	!	!	!	!LO:TX:t=P:problem:mixed beam	!	!	!
.	.	.	.	8BB-/L	.	.	8aa-\L
.	.	.	.	8B-\J	.	.	16ff\L
.	.	.	.	.	.	.	16dd\JJ
=36	=36	=36	=36	=36	=36	=36	=36
.	.	.	.	8E-\L	.	2ryy	16ee-\LL
.	.	.	.	.	.	.	16dd\
.	.	.	.	8E-\	.	.	16ee-\
.	.	.	.	.	.	.	16gg\JJ
.	.	.	.	8E-\J	.	.	8ee-\L
.	.	.	.	8r	.	.	8gg\J
!	!	!	!	!LO:LB:g=original	!	!	!
=37	=37	=37	=37	=37	=37	=37	=37
!	!	!	!LO:DY:rj	!	!	!	!
!	!LO:DY:a:t=p.	!	!LO:DY:a	!LO:TX:t=P:problem:mixed beam	!	!	!
2G/	p	2g/	p	8GG/L	.	2ryy	8ff\L
.	.	.	.	8G\J	.	.	8ee-X\
!	!	!	!	!LO:TX:t=P:problem:mixed beam	!	!	!
.	.	.	.	8GG/L	.	.	8dd\
.	.	.	.	8G\J	.	.	8ee-\J
=38	=38	=38	=38	=38	=38	=38	=38
!	!	!	!	!LO:TX:t=P:problem:mixed beam	!	!	!
2G/	.	2g/	.	8GG/L	.	2ryy	16dd\LL
.	.	.	.	.	.	.	16cc\
.	.	.	.	8G\J	.	.	16dd\
.	.	.	.	.	.	.	16ee-\JJ
!	!	!	!	!LO:TX:t=P:problem:mixed beam	!	!	!
.	.	.	.	8GG/L	.	.	8.dd\L
.	.	.	.	8G\J	.	.	.
.	.	.	.	.	.	.	16gg\Jk
!LO:LB:g=original	!	!	!	!	!	!	!
=39	=39	=39	=39	=39	=39	=39	=39
!	!	!	!	!LO:TX:t=P:problem:mixed beam	!	!	!
2G/	.	2g/	.	8GG/L	.	2ryy	16ff\LL
.	.	.	.	.	.	.	16ff\
.	.	.	.	8G\J	.	.	16ee-\
.	.	.	.	.	.	.	16ee-\JJ
!	!	!	!	!LO:TX:t=P:problem:mixed beam	!	!	!
.	.	.	.	8GG/L	.	.	16dd\LL
.	.	.	.	.	.	.	16dd\
.	.	.	.	8G\J	.	.	16ee-\
.	.	.	.	.	.	.	16ee-\JJ
!	!	!LO:LB:g=original	!	!	!	!	!
=40	=40	=40	=40	=40	=40	=40	=40
4G;>/	.	4g;>/	.	4GG;>/	.	2ryy	4dd;>\
4r	.	4r	.	4r	.	.	8r
.	.	.	.	.	.	.	16cc\LL
.	.	.	.	.	.	.	16ee-X\JJ
=41	=41	=41	=41	=41	=41	=41	=41
!	!	!	!	!LO:TX:t=P:problem:mixed beam	!	!	!
2c/	.	2c/	.	8C/L	.	2ryy	8.gg\L
.	.	.	.	8c\J	.	.	.
.	.	.	.	.	.	.	16aa-X\Jk
!	!	!	!	!LO:TX:t=P:problem:mixed beam	!	!	!
.	.	.	.	8C/L	.	.	8.gg\L
.	.	.	.	8c\J	.	.	.
.	.	.	.	.	.	.	16aa-\Jk
!	!	!	!	!	!	!	!LO:LB:g=original
=42	=42	=42	=42	=42	=42	=42	=42
8c/	.	8c/	.	8C/L	.	2ryy	16gg\LL
.	.	.	.	.	.	.	16gg\
8r	.	8r	.	8BBn/	.	.	16aa-\
.	.	.	.	.	.	.	16aa-\JJ
8c/	.	8c/	.	8C/	.	.	16gg\LL
.	.	.	.	.	.	.	16gg\
8r	.	8r	.	8BB/J	.	.	16ff\
.	.	.	.	.	.	.	16ff\JJ
=43	=43	=43	=43	=43	=43	=43	=43
4c/	.	4c/	.	8C\L	.	2ryy	16gg\LL
.	.	.	.	.	.	.	16ff\
.	.	.	.	8E-\J	.	.	16ee-X\
.	.	.	.	.	.	.	16ff\JJ
4g/	.	4g/	.	8G\L	.	.	16ee-\LL
.	.	.	.	.	.	.	16dd\
.	.	.	.	8GG/J	.	.	16cc\
.	.	.	.	.	.	.	16dd\JJ
=	=	=	=	=	=	=	=
4c/	.	4c/	.	4C/	.	4.ryy	4cc\
8r	.	8r	.	8r	.	.	8r
=44:|!	=44:|!	=44:|!	=44:|!	=44:|!	=44:|!	=44:|!	=44:|!
*>D	*	*>D	*	*>D	*	*>D	*>D
*	*	*	*	*k[]	*	*k[]	*k[]
*	*	*	*	*C:	*	*C:	*C:
!	!	!	!	!LO:TX:t=P:problem:w źródle zmiana znaków przykluczowych na An En BBn (w takiej kolejności i na takich wysokościach)	!LO:DY:a	!	!LO:TX:t=P:problem:w źródle zmiana znaków przykluczowych na een bn (w takiej kolejności i na takich wysokościach)
!	!	!	!	!	!LO:DY:a:t=for	!	!
8G/	.	8g/	.	8GG/	f	8ryy	8g/
=45	=45	=45	=45	=45	=45	=45	=45
8c/L	.	8cc\L	.	8C\L	.	2ryy	8cc\L
8e/	.	8ee\	.	8En\	.	.	8ee\
8g/	.	8gg\	.	8G\	.	.	8gg\
8e/J	.	8ee\J	.	8E\J	.	.	8ee\J
=46	=46	=46	=46	=46	=46	=46	=46
8c/L	.	8cc\L	.	8C\L	.	2ryy	8cc\L
8e/J	.	8ee\J	.	8E\J	.	.	8ee\J
4G/	.	4g/	.	4GG/	.	.	4g/
=47	=47	=47	=47	=47	=47	=47	=47
4r	.	4r	.	4FF/	.	2ryy	8a/L
.	.	.	.	.	.	.	8cc/J
4g/	.	4dd\	.	4GG/	.	.	8b/L
.	.	.	.	.	.	.	8dd/J
!	!	!	!	!LO:LB:g=original	!	!	!
=48	=48	=48	=48	=48	=48	=48	=48
8e/L	.	8cc\L	.	8C/L	.	2ryy	16cc\LL
.	.	.	.	.	.	.	16dd\
8e/J	.	8cc\J	.	8GG/J	.	.	16ee\
.	.	.	.	.	.	.	16ff\JJ
4e/	.	4cc\	.	8C/	.	.	8gg\
.	.	.	.	8r	.	.	16r
.	.	.	.	.	.	.	16g/
=49	=49	=49	=49	=49	=49	=49	=49
8c/L	.	8cc\L	.	8C\L	.	2ryy	8cc\L
8e/J	.	8ee\	.	8E\J	.	.	8ee\
8g/L	.	8gg\	.	8G\L	.	.	8gg\
8e/J	.	8ee\J	.	8E\J	.	.	8ee\J
=50	=50	=50	=50	=50	=50	=50	=50
8c/L	.	8cc\L	.	8C\L	.	2ryy	8cc\L
8e/J	.	8ee\J	.	8E\J	.	.	8ee\J
4G/	.	4g/	.	4GG/	.	.	8.g/L
.	.	.	.	.	.	.	16g/Jk
=51	=51	=51	=51	=51	=51	=51	=51
4r	.	4r	.	8FF/L	.	2ryy	16a/LL
.	.	.	.	.	.	.	16g/
.	.	.	.	8DD/J	.	.	16a/
.	.	.	.	.	.	.	16cc/JJ
!	!	!	!	!	!	!	!LO:LB:g=original
4g/	.	4dd\	.	8GG/L	.	.	16b\LL
.	.	.	.	.	.	.	16a\
.	.	.	.	8GG/J	.	.	16b\
.	.	.	.	.	.	.	16dd\JJ
=52	=52	=52	=52	=52	=52	=52	=52
!	!	!	!	!LO:TX:t=P:problem:mixed beam	!	!	!
4e/	.	4cc\	.	8C/L	.	2ryy	4cc\
.	.	.	.	8c\J	.	.	.
4r	.	4r	.	8C/	.	.	8r
.	.	.	.	8r	.	.	8ee\
=53	=53	=53	=53	=53	=53	=53	=53
!	!	!	!	!LO:TX:t=P:problem:mixed beam	!	!	!
4G/	.	4g/	.	16GG/LL	.	2ryy	8dd\L
.	.	.	.	16G\	.	.	.
.	.	.	.	16G\	.	.	8dd\J
.	.	.	.	16G\JJ	.	.	.
4r	.	4r	.	16G\LL	.	.	8dd\L
.	.	.	.	16G\	.	.	.
.	.	.	.	16G\	.	.	8cc\J
.	.	.	.	16G\JJ	.	.	.
=54	=54	=54	=54	=54	=54	=54	=54
!	!	!	!	!LO:TX:t=P:problem:mixed beam	!	!	!
4G/	.	4g/	.	16GG/LL	.	2ryy	8b\L
.	.	.	.	16G\	.	.	.
.	.	.	.	16G\	.	.	8cc\J
.	.	.	.	16G\JJ	.	.	.
4r	.	4r	.	16G\LL	.	.	8dd\L
.	.	.	.	16G\	.	.	.
.	.	.	.	16G\	.	.	8gg\J
.	.	.	.	16G\JJ	.	.	.
=55	=55	=55	=55	=55	=55	=55	=55
!	!	!	!	!LO:TX:t=P:problem:mixed beam	!	!	!
4G/	.	4g/	.	16GG/LL	.	2ryy	8dd\L
.	.	.	.	16G\	.	.	.
.	.	.	.	16G\	.	.	8dd\J
.	.	.	.	16G\JJ	.	.	.
4r	.	4r	.	16G\LL	.	.	8dd\L
.	.	.	.	16G\	.	.	.
.	.	.	.	16G\	.	.	8cc\J
.	.	.	.	16G\JJ	.	.	.
!LO:LB:g=original	!	!	!	!	!	!	!
=56	=56	=56	=56	=56	=56	=56	=56
4G/	.	4g/	.	4GG/	.	2ryy	4b\
4r	.	4r	.	4r	.	.	8r
.	.	.	.	.	.	.	16g/LL
.	.	.	.	.	.	.	16b/JJ
!	!	!LO:LB:g=original	!	!LO:LB:g=original	!	!	!
=57	=57	=57	=57	=57	=57	=57	=57
!	!	!	!	!LO:TX:t=P:problem:mixed beam	!	!	!
2G/	.	2g/	.	8GG/L	.	2ryy	8dd\L
.	.	.	.	8G\J	.	.	8dd\J
!	!	!	!	!LO:TX:t=P:problem:mixed beam	!	!	!
.	.	.	.	8GG/L	.	.	16dd\LL
.	.	.	.	.	.	.	16ee\
.	.	.	.	8G\J	.	.	16dd\
.	.	.	.	.	.	.	16cc\JJ
=58	=58	=58	=58	=58	=58	=58	=58
!	!	!	!	!LO:TX:t=P:problem:mixed beam	!	!	!
2G/	.	2g/	.	8GG/L	.	2ryy	16b\LL
.	.	.	.	.	.	.	16cc\
.	.	.	.	8G\J	.	.	16b\
.	.	.	.	.	.	.	16cc\JJ
!	!	!	!	!LO:TX:t=P:problem:mixed beam	!	!	!
.	.	.	.	8GG/L	.	.	16dd\LL
.	.	.	.	.	.	.	16ee\
.	.	.	.	8G\J	.	.	16ff#X\
.	.	.	.	.	.	.	16gg\JJ
=59	=59	=59	=59	=59	=59	=59	=59
!	!	!	!	!LO:TX:t=P:problem:mixed beam	!	!	!
2G/	.	2g/	.	8GG/L	.	2ryy	16dd\LL
.	.	.	.	.	.	.	16cc\
.	.	.	.	8G\J	.	.	16dd\
.	.	.	.	.	.	.	16ee\JJ
!	!	!	!	!LO:TX:t=P:problem:mixed beam	!	!	!
.	.	.	.	8GG/L	.	.	16dd\LL
.	.	.	.	.	.	.	16ee\
.	.	.	.	8G\J	.	.	16dd\
.	.	.	.	.	.	.	16cc\JJ
=60	=60	=60	=60	=60	=60	=60	=60
4G;>/	.	4g;>/	.	4GG/	.	2ryy	4b;>\
8r	.	8r	.	4r	.	.	8r
8G/	.	8g/	.	.	.	.	8g/
!	!	!	!	!	!	!	!LO:LB:g=original
=61	=61	=61	=61	=61	=61	=61	=61
8c/L	.	8cc\L	.	8C\L	.	2ryy	8cc\L
8e/	.	8ee\	.	8E\	.	.	8ee\
8g/	.	8gg\	.	8G\	.	.	8gg\
8e/J	.	8ee\J	.	8E\J	.	.	8ee\J
=62	=62	=62	=62	=62	=62	=62	=62
8c/L	.	8cc\L	.	8C/L	.	2ryy	8cc\L
8e/J	.	8ee\J	.	8E/J	.	.	8ee\J
4G/	.	4g/	.	4GG/	.	.	4g/
=63	=63	=63	=63	=63	=63	=63	=63
4r	.	4r	.	4FF/	.	2ryy	8a/L
.	.	.	.	.	.	.	8cc/J
4g/	.	4dd\	.	4GG/	.	.	8b/L
.	.	.	.	.	.	.	8dd/J
=64	=64	=64	=64	=64	=64	=64	=64
4e/	.	4cc\	.	8C/L	.	2ryy	16cc\LL
.	.	.	.	.	.	.	16dd\
.	.	.	.	8GG/J	.	.	16ee\
.	.	.	.	.	.	.	16ff\JJ
4r	.	4r	.	8C/	.	.	16gg\LL
.	.	.	.	.	.	.	16aa\
.	.	.	.	8r	.	.	16bb\
.	.	.	.	.	.	.	16ccc\JJ
=65	=65	=65	=65	=65	=65	=65	=65
8c/L	.	8cc\L	.	8C\L	.	2ryy	8cc\L
8e/J	.	8ee\J	.	8E\	.	.	8ee\J
8g/L	.	8gg\L	.	8G\	.	.	8gg\L
8e/J	.	8ee\J	.	8E\J	.	.	8ee\J
=66	=66	=66	=66	=66	=66	=66	=66
8c/L	.	8cc\L	.	8C/L	.	2ryy	8cc\L
8e/J	.	8ee\J	.	8E/J	.	.	8ee\J
4G/	.	4g/	.	4GG/	.	.	4g/
!	!	!	!	!LO:LB:g=original	!	!	!
=67	=67	=67	=67	=67	=67	=67	=67
4r	.	4r	.	8F\L	.	2ryy	8a/L
.	.	.	.	8D\J	.	.	16a/L
.	.	.	.	.	.	.	16cc/JJ
!	!	!	!	!LO:TX:t=P:problem:mixed beam	!	!	!
4g/	.	4dd\	.	8G\L	.	.	8b/L
.	.	.	.	8GG/J	.	.	16b/L
.	.	.	.	.	.	.	16dd/JJ
=68	=68	=68	=68	=68	=68	=68	=68
8e/	.	8cc\	.	8C/	.	2ryy	8cc\
8r	.	8r	.	8r	.	.	8r
8e/	.	8g/	.	8C/	.	.	8ccc\
8r	.	8r	.	8r	.	.	8r
=69	=69	=69	=69	=69	=69	=69	=69
4e/	.	4g/	.	4C/	.	2ryy	4ccc\
4r	.	4r	.	4r	.	.	4r
==	==	==	==	==	==	==	==
*-	*-	*-	*-	*-	*-	*-	*-
!!!system-decoration: [g1][g2]
!!!EED: Antoni Szymański
!!!EST: 2021-01-19
!!!AIN: 2 clars 2 empty 1 fagot
!!!ENC: Andrzej Borzym
!!!END: 2021-01-03
